dist/images/mapmarkerva.svg

<?xml version="1.0" encoding="UTF-8"?>
<svg width="73px" height="100px" viewBox="0 0 73 100" version="1.1" xmlns="http://www.w3.org/2000/svg" xmlns:xlink="http://www.w3.org/1999/xlink">
    <!-- Generator: Sketch 64 (93537) - https://sketch.com -->
    <title>mapmarkerva</title>
    <desc>Created with Sketch.</desc>
    <g id="Page-1" stroke="none" stroke-width="1" fill="none" fill-rule="evenodd">
        <g id="mapmarkerva" fill="#FF4B46" fill-rule="nonzero">
            <path d="M36.2162109,0 C16.2464844,0 0,16.2464844 0,36.2160156 C0,60.9988281 32.4099609,97.3814453 33.7898438,98.9181641 C35.0859375,100.361719 37.3488281,100.35918 38.6425781,98.9181641 C40.0224609,97.3814453 72.4324219,60.9988281 72.4324219,36.2160156 C72.4324219,16.2464844 56.1857422,0 36.2162109,0 Z M36.2162109,54.4373047 C26.1689453,54.4373047 17.9951172,46.2632813 17.9951172,36.2160156 C17.9951172,26.16875 26.1691406,17.9949219 36.2162109,17.9949219 C46.2632813,17.9949219 54.4371094,26.1689453 54.4371094,36.2162109 C54.4371094,46.2634766 46.2632812,54.4373047 36.2162109,54.4373047 Z" id="Shape"></path>
        </g>
    </g>
</svg>

<svg width="73" height="100" viewBox="0 0 73 100" version="1.1" xmlns="http://www.w3.org/2000/svg"><title>mapmarkerva</title><g id="Page-1" stroke="none" stroke-width="1" fill="none" fill-rule="evenodd"><g id="mapmarkerva" fill="#FF4B46" fill-rule="nonzero"><path d="M36.216 0C16.246 0 0 16.246 0 36.216c0 24.783 32.41 61.165 33.79 62.702a3.262 3.262 0 0 0 4.853 0c1.38-1.537 33.79-37.92 33.79-62.702C72.432 16.246 56.185 0 36.215 0zm0 54.437c-10.047 0-18.22-8.174-18.22-18.221s8.173-18.221 18.22-18.221c10.047 0 18.221 8.174 18.221 18.221s-8.174 18.221-18.22 18.221z" id="Shape"/></g></g></svg>
